client/filepreviewer/pdfjs/web/images/toolbarButton-pageUp.svg

<svg width="16" height="16" viewBox="0 0 16 16" fill="none" xmlns="http://www.w3.org/2000/svg">
<path d="M8.35179 5.001L13.8178 10.466C13.876 10.524 13.9222 10.5929 13.9537 10.6688C13.9852 10.7447 14.0013 10.826 14.0012 10.9082C14.0011 10.9904 13.9848 11.0717 13.9531 11.1475C13.9215 11.2234 13.8751 11.2922 13.8168 11.35C13.6991 11.4668 13.5401 11.5324 13.3743 11.5324C13.2085 11.5324 13.0494 11.4668 12.9318 11.35L7.99879 6.416L3.06679 11.349C2.94842 11.4614 2.79085 11.5231 2.62765 11.521C2.46445 11.5189 2.30853 11.4531 2.19312 11.3377C2.07771 11.2223 2.01193 11.0663 2.00982 10.9031C2.0077 10.7399 2.06941 10.5824 2.18179 10.464L7.64779 5L8.35179 5.001Z" fill="black"/>
</svg>

<svg xmlns="http://www.w3.org/2000/svg" width="16" height="16" fill="none"><path d="M8.352 5.001l5.466 5.465c.058.058.104.127.136.203a.62.62 0 0 1-.001.479.62.62 0 0 1-.136.202.63.63 0 0 1-.885 0L7.999 6.416l-4.932 4.933c-.118.112-.276.174-.439.172s-.319-.068-.435-.183-.181-.271-.183-.435.06-.321.172-.439L7.648 5l.704.001z" fill="#000"/></svg>
